images/menu-button-pc.svg

<svg width="28" height="24" viewBox="0 0 28 24" fill="none" xmlns="http://www.w3.org/2000/svg">
<path d="M0 2C0 0.895431 0.895431 0 2 0H26C27.1046 0 28 0.895431 28 2C28 3.10457 27.1046 4 26 4H2C0.895431 4 0 3.10457 0 2Z" fill="white"/>
<path d="M0 12C0 10.8954 0.895431 10 2 10H26C27.1046 10 28 10.8954 28 12C28 13.1046 27.1046 14 26 14H2C0.895431 14 0 13.1046 0 12Z" fill="white"/>
<path d="M0 22C0 20.8954 0.895431 20 2 20H26C27.1046 20 28 20.8954 28 22C28 23.1046 27.1046 24 26 24H2C0.895431 24 0 23.1046 0 22Z" fill="white"/>
</svg>

<svg width="28" height="24" fill="none" xmlns="http://www.w3.org/2000/svg"><path d="M0 2a2 2 0 0 1 2-2h24a2 2 0 1 1 0 4H2a2 2 0 0 1-2-2zM0 12a2 2 0 0 1 2-2h24a2 2 0 1 1 0 4H2a2 2 0 0 1-2-2zM0 22a2 2 0 0 1 2-2h24a2 2 0 1 1 0 4H2a2 2 0 0 1-2-2z" fill="#fff"/></svg>
